assets/images/Header/Links/timerkids.svg

<svg width="32" height="32" viewBox="0 0 32 32" fill="none" xmlns="http://www.w3.org/2000/svg">
<path fill-rule="evenodd" clip-rule="evenodd" d="M25.8811 13.6337C25.1917 12.0469 24.1153 10.6502 22.7466 9.56631C21.3778 8.48237 19.7585 7.7443 18.0307 7.41687L19.5915 4.96957L18.0085 4L15.9491 7.2293C13.8513 7.23884 11.8023 7.85049 10.0553 8.98866C8.30828 10.1268 6.93979 11.7417 6.11892 13.6337C5.01937 13.6541 3.97191 14.0966 3.2017 14.8659C2.43148 15.6352 2 16.67 2 17.7478C2 18.8255 2.43148 19.8603 3.2017 20.6296C3.97191 21.3989 5.01937 21.8414 6.11892 21.8618C6.94329 23.7616 8.31963 25.3818 10.0766 26.5206C11.8336 27.6594 13.8935 28.2667 16 28.2667C18.1065 28.2667 20.1664 27.6594 21.9234 26.5206C23.6804 25.3818 25.0567 23.7616 25.8811 21.8618C26.9806 21.8414 28.0281 21.3989 28.7983 20.6296C29.5685 19.8603 30 18.8255 30 17.7478C30 16.67 29.5685 15.6352 28.7983 14.8659C28.0281 14.0966 26.9806 13.6541 25.8811 13.6337ZM27.4649 19.349C27.038 19.7769 26.4562 20.0226 25.8456 20.0328L24.6367 20.0553L24.1634 21.1458C23.4825 22.7154 22.3454 24.0541 20.8939 24.995C19.4423 25.936 17.7404 26.4377 16 26.4377C14.2597 26.4377 12.5577 25.936 11.1062 24.995C9.65463 24.0541 8.51759 22.7154 7.83666 21.1458L7.36334 20.0553L6.15439 20.0328C5.54355 20.0216 4.9616 19.7759 4.53366 19.3486C4.10572 18.9213 3.86598 18.3465 3.86598 17.7478C3.86598 17.149 4.10572 16.5742 4.53366 16.1469C4.9616 15.7196 5.54355 15.4739 6.15439 15.4627L7.36334 15.4402L7.83666 14.3497C8.51761 12.7801 9.65466 11.4415 11.1062 10.5005C12.5577 9.55957 14.2597 9.05785 16 9.05785C17.7404 9.05785 19.4423 9.55957 20.8939 10.5005C22.3454 11.4415 23.4824 12.7801 24.1634 14.3497L24.6367 15.4402L25.8456 15.4627C26.3012 15.4711 26.7443 15.6102 27.1201 15.8627C27.496 16.1153 27.788 16.4702 27.9603 16.8836C28.1326 17.297 28.1775 17.7509 28.0894 18.189C28.0014 18.6272 27.7843 19.0305 27.4649 19.349ZM10.8667 15.4609H13.2V17.7476H10.8667V15.4609ZM21.1333 15.4609H18.8V17.7476H21.1333V15.4609ZM16 24.1508C16.6128 24.1508 17.2196 24.0325 17.7858 23.8027C18.352 23.5728 18.8665 23.2359 19.2998 22.8113C19.7331 22.3866 20.0769 21.8824 20.3114 21.3275C20.5459 20.7727 20.6666 20.1779 20.6666 19.5774H18.7852C18.795 19.6725 18.8 19.769 18.8 19.8667C18.8 21.4131 17.5464 22.6667 16 22.6667C14.4536 22.6667 13.2 21.4131 13.2 19.8667C13.2 19.769 13.205 19.6725 13.2148 19.5774H11.3333C11.3333 20.1779 11.454 20.7727 11.6885 21.3275C11.923 21.8824 12.2668 22.3866 12.7001 22.8113C13.5753 23.669 14.7623 24.1508 16 24.1508Z" fill="#565656"/>
</svg>

<svg xmlns="http://www.w3.org/2000/svg" width="32" height="32" fill="none" viewBox="0 0 32 32"><path fill="#565656" fill-rule="evenodd" d="M25.881 13.634a10.56 10.56 0 0 0-3.134-4.068 10.85 10.85 0 0 0-4.716-2.15l1.56-2.446L18.01 4l-2.06 3.23a10.88 10.88 0 0 0-5.894 1.759 10.574 10.574 0 0 0-3.936 4.645 4.24 4.24 0 0 0-2.917 1.232A4.073 4.073 0 0 0 2 17.748a4.07 4.07 0 0 0 1.202 2.882 4.24 4.24 0 0 0 2.917 1.232c.824 1.9 2.2 3.52 3.958 4.659A10.895 10.895 0 0 0 16 28.267a10.9 10.9 0 0 0 5.923-1.746 10.576 10.576 0 0 0 3.958-4.66 4.24 4.24 0 0 0 2.917-1.231A4.073 4.073 0 0 0 30 17.748a4.073 4.073 0 0 0-1.202-2.882 4.24 4.24 0 0 0-2.917-1.232zm1.584 5.715a2.343 2.343 0 0 1-1.62.684l-1.208.022-.474 1.09a8.737 8.737 0 0 1-3.27 3.85A9 9 0 0 1 16 26.438a9 9 0 0 1-4.894-1.443 8.737 8.737 0 0 1-3.27-3.85l-.473-1.09-1.209-.022a2.355 2.355 0 0 1-1.62-.684 2.262 2.262 0 0 1-.668-1.601c0-.599.24-1.174.668-1.601a2.355 2.355 0 0 1 1.62-.684l1.21-.023.473-1.09a8.738 8.738 0 0 1 3.27-3.85A9 9 0 0 1 16 9.059c1.74 0 3.442.502 4.894 1.443a8.738 8.738 0 0 1 3.27 3.849l.473 1.09 1.209.023c.455.008.898.147 1.274.4.376.252.668.607.84 1.02.173.414.217.868.13 1.306a2.27 2.27 0 0 1-.625 1.16zm-16.598-3.888H13.2v2.287h-2.333V15.46zm10.266 0H18.8v2.287h2.333V15.46zM16 24.15a4.75 4.75 0 0 0 1.786-.348 4.676 4.676 0 0 0 1.514-.992 4.569 4.569 0 0 0 1.011-1.483c.235-.555.356-1.15.356-1.75h-1.882a2.8 2.8 0 1 1-5.57 0h-1.882A4.505 4.505 0 0 0 12.7 22.81a4.715 4.715 0 0 0 3.3 1.34z" clip-rule="evenodd"/></svg>
